X:1
T:Christ Our Rock
T:Christ Our Rock
T:Peter Philip Bilhorn
T:Peter Philip Bilhorn, 1891
T:Public Domain Courtesy of the Cyber Hymnal™
T:Public Domain Courtesy of the Cyber Hymnal™
C:Peter Philip Bilhorn
Z:Public Domain
Z:Courtesy of the Cyber Hymnal™
%%score ( 1 2 ) 3 ( 4 5 )
L:1/8
Q:1/4=88
M:6/8
K:F
V:1 treble 
V:2 treble 
V:3 treble 
V:4 bass 
V:5 bass 
V:1
"^Solo" C | A4 Bc | D4 EF | C4 FA | G4 GG | G4 AB | A4 ^GA | =B4 cd | c3- !fermata!c2 C | A4 Bc | %10
w: 1.~When|wea- ry and|faint- ing and|rea- dy to|die, To the|Rock in the|de- sert for|safe- ty I|fly; * There,|’neath its cool|
w: 2.~When|thirst- y and|parched with the|heat of the|day, To the|Rock that was|smit- ten I’ll|haste me and|say, * Give|me a cool|
w: 3.~Though|bil- lows of|sor- row a-|round me may|roll, A- nd|dan- gers of|mid- night may|trou- ble my|soul, * I’ll|haste to the|
 D4 EF | C4 FA | c3- c2 ^c | d4 Gd | c4 AF |"^riten." A3 A2 G | F3- F2 ||"^Refrain" C | %18
w: shel- ter from|storms I would|hide; * My|soul is re-|freshed as in|Him I a-|bide. *||
w: drink from Thy|boun- ti- ful|store, * And|quick- ly and|free- ly the|life wa- ters|pour. *|O|
w: Rock that is|high- er than|I, * And|safe- ly I’ll|rest till the|night pass- eth|by. *||
 [Ec]3 [EB]2 D | [EB]3 [FA]2 [FA] | [FA]3 [FG]2 F |!ff! [Ec]3- [Ec]2 [Fc] | %22
w: ||||
w: come all ye|wea- ry, and|bliss- ful- ly|prove * That|
w: ||||
 [Af]2 z [Ac]2!mf! [FA] |!ff! [Fd]2 z!<(! (FG)!<)![F^G] | [FA] !fermata![Fc]2"^rit." (EDE) | %25
w: |||
w: Christ is the|Rock, and * His|sha- dow is * *|
w: |||
 [CF]3- !fermata![CF]2 |] %26
w: |
w: love. *|
w: |
V:2
 x | x6 | x6 | x6 | x6 | x6 | x6 | x6 | x6 | x6 | x6 | x6 | x6 | x6 | x6 | x6 | x5 || C | x5 D | %19
 x6 | x5 F | x6 | x6 | x3 F2 x | x3 C3 | x5 |] %26
V:3
 z | ([A,CF][A,CF][A,CF] [A,CF]) z2 | ([B,D][B,D][B,D] [B,D]) z2 | (CCC C) z2 | %4
 ([CE][CE][CE] [CE]) z2 | ([EG][EG][EG] [EG]) z2 | ([FA][FA][FA] [FA]) z2 | %7
 ([EFG][EFG][EFG] [EFG]) z2 | ([EG][EG][FA] !fermata![EA]2) z | ([A,CF][A,CF][A,CF] [A,CF]) z2 | %10
 ([B,D][B,D][B,D] [B,D]) z2 | (CCC C) z2 | ([_EA][EA][EA] [EA]2) z | ([DFB][DFB][DFB] [DFB]) z2 | %14
 ([FA][FA][FA] [FA]) z2 | ([FA][FA][FA]) [EA]2 [CEG] | [CF]3- [CF]2 || x | x6 | x6 | x6 | x6 | x6 | %23
 x6 | x6 | x5 |] %26
V:4
 z | ([F,,F,][F,,F,][F,,F,] [F,,F,]) z2 | ([B,,F,][B,,F,][B,,F,] [B,,F,]) z2 | %3
 ([F,A,][F,A,][F,A,] [F,A,]) z2 | ([C,G,][C,G,][C,G,] [C,G,]) z2 | ([C,C][C,C][C,C] [C,C]) z2 | %6
 ([F,C][F,C][F,C] [F,C]) z2 | ([G,=B,][G,B,][G,B,] [G,B,]) z2 | %8
 ([C,C][C,B,][C,A,] !fermata![C,G,]2) z | ([F,,F,][F,,F,][F,,F,] [F,,F,]) z2 | %10
 ([B,,F,][B,,F,][B,,F,] [B,,F,]) z2 | ([F,A,][F,A,][F,A,] [F,A,]) z2 | ([F,C][F,C][F,C] [F,C]2) z | %13
 ([B,,B,][B,,B,][B,,B,] [B,,B,]) z2 | ([F,C][F,C][F,C] [F,C]) z2 | %15
"^riten." ([C,C][C,C][C,C]) [C,C]2 [C,C] | [F,A,]3- [F,A,]2 || [F,A,] | [C,G,]3 [C,G,]2 [C,B,] | %19
 [C,G,]3 F,2 [F,C] | [D,D]3 [D,=B,]2 [D,B,] | [C,C]3- [C,C]2 [F,A,] | [F,C]2 z [F,C]2 [F,C] | %23
 [B,,B,]2 z A,B,[_D,=B,] | [C,C] !fermata![C,A,]2 !fermata![C,B,]3 | [F,A,]3- [F,A,]2 |] %26
V:5
 x | x6 | x6 | x6 | x6 | x6 | x6 | x6 | x6 | x6 | x6 | x6 | x6 | x6 | x6 | x6 | x5 || x | x6 | %19
 x3 F,2 x | x6 | x6 | x6 | x3 _D,2 x | x6 | x5 |] %26

